austria/municipalities/70319.svg

<?xml version="1.0" encoding="UTF-8" standalone="no"?>
<svg
   viewBox="0 0 470 555"
   inkscape:version="1.2 (dc2aedaf03, 2022-05-15)"
   sodipodi:docname="AUT_Inzing_COA.svg"
   id="svg120"
   version="1.1"
   width="470"
   height="555"
   xml:space="preserve"
   xmlns:inkscape="http://www.inkscape.org/namespaces/inkscape"
   xmlns:sodipodi="http://sodipodi.sourceforge.net/DTD/sodipodi-0.dtd"
   xmlns="http://www.w3.org/2000/svg"
   xmlns:svg="http://www.w3.org/2000/svg"
   xmlns:rdf="http://www.w3.org/1999/02/22-rdf-syntax-ns#"
   xmlns:cc="http://creativecommons.org/ns#"
   xmlns:dc="http://purl.org/dc/elements/1.1/"><title
     id="title2711">Wappen von Inzng</title><metadata
     id="metadata126"><rdf:RDF><cc:Work
         rdf:about=""><dc:format>image/svg+xml</dc:format><dc:type
           rdf:resource="http://purl.org/dc/dcmitype/StillImage" /><dc:title>Wappen von Inzng</dc:title><dc:date>23.08.2020</dc:date><dc:contributor><cc:Agent><dc:title>Simon Eller</dc:title></cc:Agent></dc:contributor></cc:Work></rdf:RDF></metadata><defs
     id="defs124" /><sodipodi:namedview
     inkscape:guide-bbox="true"
     showguides="false"
     inkscape:document-rotation="0"
     inkscape:current-layer="g118"
     inkscape:window-maximized="1"
     inkscape:window-y="-8"
     inkscape:window-x="-8"
     inkscape:cy="264.56568"
     inkscape:cx="506.79025"
     inkscape:zoom="0.85045045"
     showgrid="false"
     id="namedview122"
     inkscape:window-height="1009"
     inkscape:window-width="1920"
     inkscape:pageshadow="2"
     inkscape:pageopacity="0"
     guidetolerance="10"
     gridtolerance="10"
     objecttolerance="10"
     borderopacity="1"
     bordercolor="#666666"
     pagecolor="#ffffff"
     inkscape:showpageshadow="0"
     inkscape:pagecheckerboard="0"
     inkscape:deskcolor="#d1d1d1" /><g
     style="fill:#ffffff;stroke:#000000;stroke-width:10;stroke-linecap:square;stroke-linejoin:miter;stroke-miterlimit:4;stroke-dasharray:none"
     id="g118"><path
       inkscape:connector-curvature="0"
       style="fill:#000000;stroke-width:0;stroke-linecap:square;stroke-linejoin:miter;stroke-miterlimit:4;stroke-dasharray:none;stroke:none"
       id="path2709"
       d="M 5,5 H 465 V 335 C 465,455 365,550 235,550 105,550 5,455 5,335 V 5" /><path
       id="path1428"
       style="display:inline;opacity:1;fill:#fcdd09;fill-opacity:1;stroke:none;stroke-width:1.15726px;stroke-linecap:butt;stroke-linejoin:miter;stroke-opacity:1"
       d="m 365.7168,347.99414 v -87.59375 h 88.2539 L 431.0332,126.76367 h 23.72071 L 398.43164,73.753906 418.90039,230.60156 H 364.38281 L 361.05664,71.529297 h 17.31055 L 349.85938,32.359375 321.35156,71.529297 h 17.31055 L 335.33594,230.60156 H 280.81836 L 301.28711,73.753906 244.96484,126.76367 h 23.72071 l -22.9375,133.63672 h 88.2539 v 87.59375 z"
       sodipodi:nodetypes="cccccccccccccccccccccc" /><path
       style="fill:#da121a;stroke:none;stroke-width:1px;stroke-linecap:butt;stroke-linejoin:miter;stroke-opacity:1"
       d="M 219.71059,5 H 5 v 114.24848 z"
       id="path46354"
       sodipodi:nodetypes="cccc" /><path
       style="fill:#ffffff;stroke:none;stroke-width:1px;stroke-linecap:butt;stroke-linejoin:miter;stroke-opacity:1"
       d="M 5,123.73169 H 219.71059 L 5,237.89534 Z"
       id="path46356"
       sodipodi:nodetypes="cccc" /><path
       id="path46365"
       style="fill:#da121a;stroke:none;stroke-width:4;stroke-linecap:square;stroke-linejoin:miter;stroke-miterlimit:4;stroke-dasharray:none"
       d="M 5.5390625 242.37891 L 5 246.51562 L 5 335 C 5 339.59576 5.196913 344.13972 5.4863281 348.6582 L 205.36719 242.37891 L 5.5390625 242.37891 z " /><path
       id="path46360"
       style="fill:#ffffff;stroke:none;stroke-width:1px;stroke-linecap:butt;stroke-linejoin:miter;stroke-opacity:1"
       d="M 5.8261719 352.99805 C 8.9701552 390.08672 21.734723 424.31308 41.955078 453.48047 L 230.93555 352.99805 L 5.8261719 352.99805 z " /><path
       d="M 5,5 H 465 V 335 C 465,455 365,550 235,550 105,550 5,455 5,335 V 5"
       id="path2"
       style="fill:none;stroke-width:4;stroke-linecap:square;stroke-linejoin:miter;stroke-miterlimit:4;stroke-dasharray:none;stroke:#000000"
       inkscape:connector-curvature="0" /></g></svg>

<svg width="470" height="555" xml:space="preserve" xmlns="http://www.w3.org/2000/svg"><g style="fill:#fff;stroke:#000;stroke-width:10;stroke-linecap:square;stroke-linejoin:miter;stroke-miterlimit:4;stroke-dasharray:none"><path style="fill:#000;stroke-width:0;stroke-linecap:square;stroke-linejoin:miter;stroke-miterlimit:4;stroke-dasharray:none;stroke:none" d="M5 5h460v330c0 120-100 215-230 215S5 455 5 335V5"/><path style="display:inline;opacity:1;fill:#fcdd09;fill-opacity:1;stroke:none;stroke-width:1.15726px;stroke-linecap:butt;stroke-linejoin:miter;stroke-opacity:1" d="M365.717 347.994V260.4h88.254l-22.938-133.636h23.72l-56.321-53.01L418.9 230.602h-54.517l-3.326-159.073h17.31L349.86 32.36l-28.507 39.17h17.31l-3.326 159.073h-54.518l20.47-156.848-56.323 53.01h23.72L245.749 260.4h88.254v87.594z"/><path style="fill:#da121a;stroke:none;stroke-width:1px;stroke-linecap:butt;stroke-linejoin:miter;stroke-opacity:1" d="M219.71 5H5v114.248z"/><path style="fill:#fff;stroke:none;stroke-width:1px;stroke-linecap:butt;stroke-linejoin:miter;stroke-opacity:1" d="M5 123.732h214.71L5 237.895z"/><path style="fill:#da121a;stroke:none;stroke-width:4;stroke-linecap:square;stroke-linejoin:miter;stroke-miterlimit:4;stroke-dasharray:none" d="M5.54 242.379 5 246.516V335c0 4.596.197 9.14.486 13.658l199.881-106.28H5.54z"/><path style="fill:#fff;stroke:none;stroke-width:1px;stroke-linecap:butt;stroke-linejoin:miter;stroke-opacity:1" d="M5.826 352.998c3.144 37.089 15.909 71.315 36.13 100.482l188.98-100.482H5.826z"/><path d="M5 5h460v330c0 120-100 215-230 215S5 455 5 335V5" style="fill:none;stroke-width:4;stroke-linecap:square;stroke-linejoin:miter;stroke-miterlimit:4;stroke-dasharray:none;stroke:#000"/></g></svg>
